omega/mobile/images/icons/badm.svg

<svg height="256" viewBox="0 0 256 256" width="256" xmlns="http://www.w3.org/2000/svg"><path d="m94.47 5.3c.77 2.5-2.33 9.31-3.47 11.7 0 0 14 6 14 6s3-12 3-12c4.08.38 12.9 2.62 12.39 8.04-.33 3.44-4.22 7.7-3.19 10.27 1.13 2.85 5.59 2.36 8.8 6.69h2s6-12 6-12c3.71.97 12.06 4.25 11.04 9.04-.7 3.31-5.05 7.26-3.83 10.69 1.04 2.98 7.98 6.23 10.79 7.27 0 0 6-12 6-12 4.04 1.1 11.77 4.74 10.23 10.03-.99 3.41-4.94 6.18-4.79 8.96.16 3.09 7.86 7.8 10.56 9.01 0 0 7-11 7-11 1.82.68 3.16 1.17 4.83 2.24 9.92 6.31 2.36 12.56-3.83 17.76 5.94 2.81 8.2 7.38 11.83 6.55 3.9-.9 7.19-8.93 11.78-6.51 1.07.56 2.55 2.09 3.33 3.01 1.79 2.12 3.59 4.71 2.05 7.49-2.04 3.68-8.54 5.06-4.74 10.29 0 0 2.47 2.52 2.47 2.52 7.72 6.88 9.2-4.6 16.18-2.65 1.7.48 2.84 1.88 3.9 3.19 5.89 7.25-.55 9.64-6.8 13.11 0 0 10 11 10 11s11-8 11-8c1.77 2.81 7.62 9.38 6.13 12.5-1.04 2.17-6.14 4.2-8.38 5.47 0 0-20.75 11.27-20.75 11.27-25.07 13.39-50.25 27.65-74 43.26 0 0-22.17 15.39-22.17 15.39-3 2.21-6.94 5.89-10.83 5.84-4.45-.06-17.7-11.61-22-14.92 0 0-54-40.81-54-40.81s17.03-46 17.03-46 17.12-64.83 17.12-64.83 5.01-19.17 5.01-19.17 2.04-11.83 2.04-11.83 2.8-12.17 2.8-12.17c3.68.18 12.18 1.09 13.47 5.3zm-11.47 38.7c2.36 1.29 8.16 5.2 10.7 4.3 2.3-.82 4.5-8.89 5.3-11.3 0 0-11-6-11-6s-5 13-5 13zm23.01 13.32c.98 1.43 7.18 4.68 8.99 5.68 0 0 6-13 6-13s-11-7-11-7c-1.72 2.87-6.07 11.29-3.99 14.32zm-17.72 6.81c-.92-2.75-6.72-5.11-9.29-6.13 0 0-4 13-4 13s10 4 10 4c.91-2.12 3.97-8.81 3.29-10.87zm45.62 10.63c3.04-.2 7.82-7.71 6.8-10.55-1.08-3-6.89-5.32-9.71-6.21 0 0-7 12-7 12 2.22 1.01 8.16 4.88 9.91 4.76zm-35.91-4.76s-5 10-5 10c2.31 4.45 4.75 5.61 9 8 0 0 6-13 6-13s-10-5-10-5zm46 14s11 6 11 6 7-11 7-11-9-7-9-7c-4.34 3.39-7 6.86-9 12zm-28-1s-6.25 11-6.25 11 8.37 5.88 8.37 5.88c4.38-3.63 5.67-7.34 8.88-11.88 0 0-11-5-11-5zm-41 17c1.62-4.38 10.88-11.75-3-16-4.88 10.88-8.25 11.38 3 16zm88.81-2.01c.41 2.57 6.08 6.43 8.19 8.01 2.09-2.01 8.41-7.09 8.38-10-.04-2.99-6.1-7.13-8.38-9-2.14 2.03-8.66 7.95-8.19 10.99zm-73.81 13.01c5.13-8.6 6.83-10.41-2-16-4.75 7.51-7.39 11.33 2 16zm45-15s-7 11-7 11 8 5 8 5 8-10 8-10-9-6-9-6zm46 18c1.6 1.5 6.15 6.11 8.08 6.6 2.97.76 9.72-4.59 9.72-7.62.01-2.28-4.3-6.87-5.8-8.98-5.72 1.68-8.62 5.28-12 10zm-84 4s8 4 8 4 6-10 6-10-7-6-7-6-7 12-7 12zm-38.75 2c4.13 4.25 1.6 2.04 6.75 5 0 0 5-12 5-12s-7.5-4.62-7.5-4.62c-3.25 7.5-3.26 8.68-4.25 11.62zm93.75-11s-8 10-8 10c1.71 1.46 5.9 5.46 8.12 5.88 6.63-4.88 7.15-6.8 8.88-9.88 0 0-9-6-9-6zm-34 9c-1.1 1.74-5.96 7.23-6.25 8.88-.52 2.91 2.63 4.74 6.5 6 2.34-.6 7.15-7.79 8.75-9.88 0 0-9-5-9-5zm-46 13s6 3 6 3 5-11 5-11-5-4-5-4c-3.98 3.77-4.32 6.95-6 12zm138.8-7.86c-3.58-1.7-10.7 5.34-12.8 7.86 4.41 2.59 5.87 5.39 8.18 6.17 4.07 1.37 10.01-3.6 12.82-6.17 0 0-8.2-7.86-8.2-7.86zm-51.18 8.61c3.88 4.63 3.63 5.25 8 7.75 3.88-2.25 8.38-6.93 10.38-9.5 0 0-8-7-8-7-2.24 1.73-2.62.5-10.38 8.75zm-75.62 8.25c1.22.83 2.73 2.13 4.27 2.21 3.38.15 8.02-5.64 7.04-8.96-.56-1.9-2.78-3.18-4.31-4.25 0 0-7 11-7 11zm47 4c4.98-2.14 9.29-4.16 10.88-9.5 0 0-6.88-5.5-6.88-5.5-6.51 5.74-13.12 9.75-4 15zm-82.12.75s6 3 6 3 5.22-10.45 5-10.75c-.95-1.25-3.89-1.99-6-3.25 0 0-5 11-5 11zm137.12-6.63c-2.56 1.89-7.59 6.13-9 8.88 0 0 7.25 6.88 7.25 6.88s10.75-6.88 10.75-6.88c-3.38-4.71-4-5.25-9-8.88zm-83 1.88s-6 10-6 10 4 3 4 3h2c3.77-5.34 10.04-10.3 0-13zm-38.12 16.12c12.12-9.87 4.5-12 1.12-14.12-8.38 8.75-8.38 10.88-1.12 14.12zm84.87-14.87c-4.75 2.13-5.25 3.87-9.13 9.13 1.49.98 4.31 5.44 6 5 1-.27 4.24-2.44 5.1-2.99 0 0 5.28-4.39 5.28-4.39-1.25-1.42-5.57-5.81-7.25-6.75zm-40.75 15.75v2s4 3 4 3c5.14-2.11 6.87-4.53 10-9-7.83-4.25-6.49-1.85-14 4zm-38 5s5 3 5 3 6-11 6-11-4-3-4-3c-3.82 3.36-5.27 6.28-7 11zm83.38-.5c1.62 2.88 3.87 3.38 7.12 5.62 6.12-3.5 8.14-4.69 10.5-7.12 0 0-7-6-7-6-2.27 1.5-9.93 4.97-10.62 7.5zm-117.76-3.57c2.46.63 12.36 9.08 15.38 11.21 0 0 21.99 16.82 21.99 16.82s19.18 14.53 19.18 14.53c3.03 2.44 15.91 11.32 16.89 13.86 1.07 2.79-3.89 11.37-8.64 9.81-1.72-.57-5.85-4.04-7.49-5.28 0 0-15.93-12.22-15.93-12.22s-20-15.29-20-15.29-20.99-16-20.99-16c-3.87-2.97-8.46-5.6-10.01-10.37 5.03-3.79 6.27-7.93 9.62-7.07zm44.63 11.07s4.75 3.62 4.75 3.62c3.12-2.37 6.88-6.37 8.5-8.87-.85-1.36-5.24-3.09-6.5-3.75 0 0-6.75 9-6.75 9zm49.47-8.22c-4.01-.05-7.24 5.09-8.72 8.22 0 0 3 3 3 3 5.56-1.19 8.55-3.9 11-9-1.26-.63-3.97-2.2-5.28-2.22zm-29.78 9.42c-2.85 0-7.47 4.69-6.6 7.66.53 1.84 2.2 2.38 3.66 3.14 0 0 7-7 7-7-.89-1.72-1.67-3.8-4.06-3.8zm33.06 7.8c7.26 4.74 5.98 2.87 15-2 0 0-5-6-5-6s-10 8-10 8zm-99.58-1.2s20.97 16.12 20.97 16.12 31.32 23.85 31.32 23.85c2.41 1.76 12.08 8.49 13 10.61 1.62 3.74-4.3 9.99-6.76 12.44-10.14 10.05-23.98 14.4-37.95 14.18-5.86-.1-5.74-.83-10.99-2.31-26.6-7.54-40.67-37.06-31.16-62.69 2.38-6.42 5.61-13.89 11.39-17.95 4.22-.53 7.07 3.22 10.18 5.75zm68.58 9.2c6.77 4.06 8.12.15 14-4-6.03-6.61-9.82-1.81-14 4zm13.08 6.31c-.71 2 .5 3.97 2.69 3.91 1.75-.06 7.42-4.11 9.23-5.22v-2s-5-3-5-3c-1.87 1.36-6.18 4.21-6.92 6.31z" fill="#fff"/></svg>

<?xml version="1.0" encoding="UTF-8" standalone="no"?>
<!DOCTYPE svg PUBLIC "-//W3C//DTD SVG 20010904//EN"
              "http://www.w3.org/TR/2001/REC-SVG-20010904/DTD/svg10.dtd">

<svg xmlns="http://www.w3.org/2000/svg"
     width="256" height="256"
     viewBox="0 0 256 256">
  <path id="Selection #2"
        fill="#fff" 
        d="M 94.47,5.30
           C 95.24,7.80 92.14,14.61 91.00,17.00
             91.00,17.00 105.00,23.00 105.00,23.00
             105.00,23.00 108.00,11.00 108.00,11.00
             112.08,11.38 120.90,13.62 120.39,19.04
             120.06,22.48 116.17,26.74 117.20,29.31
             118.33,32.16 122.79,31.67 126.00,36.00
             126.00,36.00 128.00,36.00 128.00,36.00
             128.00,36.00 134.00,24.00 134.00,24.00
             137.71,24.97 146.06,28.25 145.04,33.04
             144.34,36.35 139.99,40.30 141.21,43.73
             142.25,46.71 149.19,49.96 152.00,51.00
             152.00,51.00 158.00,39.00 158.00,39.00
             162.04,40.10 169.77,43.74 168.23,49.03
             167.24,52.44 163.29,55.21 163.44,57.99
             163.60,61.08 171.30,65.79 174.00,67.00
             174.00,67.00 181.00,56.00 181.00,56.00
             182.82,56.68 184.16,57.17 185.83,58.24
             195.75,64.55 188.19,70.80 182.00,76.00
             187.94,78.81 190.20,83.38 193.83,82.55
             197.73,81.65 201.02,73.62 205.61,76.04
             206.68,76.60 208.16,78.13 208.94,79.05
             210.73,81.17 212.53,83.76 210.99,86.54
             208.95,90.22 202.45,91.60 206.25,96.83
             206.25,96.83 208.72,99.35 208.72,99.35
             216.44,106.23 217.92,94.75 224.90,96.70
             226.60,97.18 227.74,98.58 228.80,99.89
             234.69,107.14 228.25,109.53 222.00,113.00
             222.00,113.00 232.00,124.00 232.00,124.00
             232.00,124.00 243.00,116.00 243.00,116.00
             244.77,118.81 250.62,125.38 249.13,128.50
             248.09,130.67 242.99,132.70 240.75,133.97
             240.75,133.97 220.00,145.24 220.00,145.24
             194.93,158.63 169.75,172.89 146.00,188.50
             146.00,188.50 123.83,203.89 123.83,203.89
             120.83,206.10 116.89,209.78 113.00,209.73
             108.55,209.67 95.30,198.12 91.00,194.81
             91.00,194.81 37.00,154.00 37.00,154.00
             37.00,154.00 54.03,108.00 54.03,108.00
             54.03,108.00 71.15,43.17 71.15,43.17
             71.15,43.17 76.16,24.00 76.16,24.00
             76.16,24.00 78.20,12.17 78.20,12.17
             78.20,12.17 81.00,0.00 81.00,0.00
             84.68,0.18 93.18,1.09 94.47,5.30 Z
           M 83.00,44.00
           C 85.36,45.29 91.16,49.20 93.70,48.30
             96.00,47.48 98.20,39.41 99.00,37.00
             99.00,37.00 88.00,31.00 88.00,31.00
             88.00,31.00 83.00,44.00 83.00,44.00 Z
           M 106.01,57.32
           C 106.99,58.75 113.19,62.00 115.00,63.00
             115.00,63.00 121.00,50.00 121.00,50.00
             121.00,50.00 110.00,43.00 110.00,43.00
             108.28,45.87 103.93,54.29 106.01,57.32 Z
           M 88.29,64.13
           C 87.37,61.38 81.57,59.02 79.00,58.00
             79.00,58.00 75.00,71.00 75.00,71.00
             75.00,71.00 85.00,75.00 85.00,75.00
             85.91,72.88 88.97,66.19 88.29,64.13 Z
           M 133.91,74.76
           C 136.95,74.56 141.73,67.05 140.71,64.21
             139.63,61.21 133.82,58.89 131.00,58.00
             131.00,58.00 124.00,70.00 124.00,70.00
             126.22,71.01 132.16,74.88 133.91,74.76 Z
           M 98.00,70.00
           C 98.00,70.00 93.00,80.00 93.00,80.00
             95.31,84.45 97.75,85.61 102.00,88.00
             102.00,88.00 108.00,75.00 108.00,75.00
             108.00,75.00 98.00,70.00 98.00,70.00 Z
           M 144.00,84.00
           C 144.00,84.00 155.00,90.00 155.00,90.00
             155.00,90.00 162.00,79.00 162.00,79.00
             162.00,79.00 153.00,72.00 153.00,72.00
             148.66,75.39 146.00,78.86 144.00,84.00 Z
           M 116.00,83.00
           C 116.00,83.00 109.75,94.00 109.75,94.00
             109.75,94.00 118.12,99.88 118.12,99.88
             122.50,96.25 123.79,92.54 127.00,88.00
             127.00,88.00 116.00,83.00 116.00,83.00 Z
           M 75.00,100.00
           C 76.62,95.62 85.88,88.25 72.00,84.00
             67.12,94.88 63.75,95.38 75.00,100.00 Z
           M 163.81,97.99
           C 164.22,100.56 169.89,104.42 172.00,106.00
             174.09,103.99 180.41,98.91 180.38,96.00
             180.34,93.01 174.28,88.87 172.00,87.00
             169.86,89.03 163.34,94.95 163.81,97.99 Z
           M 90.00,111.00
           C 95.13,102.40 96.83,100.59 88.00,95.00
             83.25,102.51 80.61,106.33 90.00,111.00 Z
           M 135.00,96.00
           C 135.00,96.00 128.00,107.00 128.00,107.00
             128.00,107.00 136.00,112.00 136.00,112.00
             136.00,112.00 144.00,102.00 144.00,102.00
             144.00,102.00 135.00,96.00 135.00,96.00 Z
           M 181.00,114.00
           C 182.60,115.50 187.15,120.11 189.08,120.60
             192.05,121.36 198.80,116.01 198.80,112.98
             198.81,110.70 194.50,106.11 193.00,104.00
             187.28,105.68 184.38,109.28 181.00,114.00 Z
           M 97.00,118.00
           C 97.00,118.00 105.00,122.00 105.00,122.00
             105.00,122.00 111.00,112.00 111.00,112.00
             111.00,112.00 104.00,106.00 104.00,106.00
             104.00,106.00 97.00,118.00 97.00,118.00 Z
           M 58.25,120.00
           C 62.38,124.25 59.85,122.04 65.00,125.00
             65.00,125.00 70.00,113.00 70.00,113.00
             70.00,113.00 62.50,108.38 62.50,108.38
             59.25,115.88 59.24,117.06 58.25,120.00 Z
           M 152.00,109.00
           C 152.00,109.00 144.00,119.00 144.00,119.00
             145.71,120.46 149.90,124.46 152.12,124.88
             158.75,120.00 159.27,118.08 161.00,115.00
             161.00,115.00 152.00,109.00 152.00,109.00 Z
           M 118.00,118.00
           C 116.90,119.74 112.04,125.23 111.75,126.88
             111.23,129.79 114.38,131.62 118.25,132.88
             120.59,132.28 125.40,125.09 127.00,123.00
             127.00,123.00 118.00,118.00 118.00,118.00 Z
           M 72.00,131.00
           C 72.00,131.00 78.00,134.00 78.00,134.00
             78.00,134.00 83.00,123.00 83.00,123.00
             83.00,123.00 78.00,119.00 78.00,119.00
             74.02,122.77 73.68,125.95 72.00,131.00 Z
           M 210.80,123.14
           C 207.22,121.44 200.10,128.48 198.00,131.00
             202.41,133.59 203.87,136.39 206.18,137.17
             210.25,138.54 216.19,133.57 219.00,131.00
             219.00,131.00 210.80,123.14 210.80,123.14 Z
           M 159.62,131.75
           C 163.50,136.38 163.25,137.00 167.62,139.50
             171.50,137.25 176.00,132.57 178.00,130.00
             178.00,130.00 170.00,123.00 170.00,123.00
             167.76,124.73 167.38,123.50 159.62,131.75 Z
           M 84.00,140.00
           C 85.22,140.83 86.73,142.13 88.27,142.21
             91.65,142.36 96.29,136.57 95.31,133.25
             94.75,131.35 92.53,130.07 91.00,129.00
             91.00,129.00 84.00,140.00 84.00,140.00 Z
           M 131.00,144.00
           C 135.98,141.86 140.29,139.84 141.88,134.50
             141.88,134.50 135.00,129.00 135.00,129.00
             128.49,134.74 121.88,138.75 131.00,144.00 Z
           M 48.88,144.75
           C 48.88,144.75 54.88,147.75 54.88,147.75
             54.88,147.75 60.10,137.30 59.88,137.00
             58.93,135.75 55.99,135.01 53.88,133.75
             53.88,133.75 48.88,144.75 48.88,144.75 Z
           M 186.00,138.12
           C 183.44,140.01 178.41,144.25 177.00,147.00
             177.00,147.00 184.25,153.88 184.25,153.88
             184.25,153.88 195.00,147.00 195.00,147.00
             191.62,142.29 191.00,141.75 186.00,138.12 Z
           M 103.00,140.00
           C 103.00,140.00 97.00,150.00 97.00,150.00
             97.00,150.00 101.00,153.00 101.00,153.00
             101.00,153.00 103.00,153.00 103.00,153.00
             106.77,147.66 113.04,142.70 103.00,140.00 Z
           M 64.88,156.12
           C 77.00,146.25 69.38,144.12 66.00,142.00
             57.62,150.75 57.62,152.88 64.88,156.12 Z
           M 149.75,141.25
           C 145.00,143.38 144.50,145.12 140.62,150.38
             142.11,151.36 144.93,155.82 146.62,155.38
             147.62,155.11 150.86,152.94 151.72,152.39
             151.72,152.39 157.00,148.00 157.00,148.00
             155.75,146.58 151.43,142.19 149.75,141.25 Z
           M 109.00,157.00
           C 109.00,157.00 109.00,159.00 109.00,159.00
             109.00,159.00 113.00,162.00 113.00,162.00
             118.14,159.89 119.87,157.47 123.00,153.00
             115.17,148.75 116.51,151.15 109.00,157.00 Z
           M 71.00,162.00
           C 71.00,162.00 76.00,165.00 76.00,165.00
             76.00,165.00 82.00,154.00 82.00,154.00
             82.00,154.00 78.00,151.00 78.00,151.00
             74.18,154.36 72.73,157.28 71.00,162.00 Z
           M 154.38,161.50
           C 156.00,164.38 158.25,164.88 161.50,167.12
             167.62,163.62 169.64,162.43 172.00,160.00
             172.00,160.00 165.00,154.00 165.00,154.00
             162.73,155.50 155.07,158.97 154.38,161.50 Z
           M 36.62,157.93
           C 39.08,158.56 48.98,167.01 52.00,169.14
             52.00,169.14 73.99,185.96 73.99,185.96
             73.99,185.96 93.17,200.49 93.17,200.49
             96.20,202.93 109.08,211.81 110.06,214.35
             111.13,217.14 106.17,225.72 101.42,224.16
             99.70,223.59 95.57,220.12 93.93,218.88
             93.93,218.88 78.00,206.66 78.00,206.66
             78.00,206.66 58.00,191.37 58.00,191.37
             58.00,191.37 37.01,175.37 37.01,175.37
             33.14,172.40 28.55,169.77 27.00,165.00
             32.03,161.21 33.27,157.07 36.62,157.93 Z
           M 81.25,169.00
           C 81.25,169.00 86.00,172.62 86.00,172.62
             89.12,170.25 92.88,166.25 94.50,163.75
             93.65,162.39 89.26,160.66 88.00,160.00
             88.00,160.00 81.25,169.00 81.25,169.00 Z
           M 130.72,160.78
           C 126.71,160.73 123.48,165.87 122.00,169.00
             122.00,169.00 125.00,172.00 125.00,172.00
             130.56,170.81 133.55,168.10 136.00,163.00
             134.74,162.37 132.03,160.80 130.72,160.78 Z
           M 100.94,170.20
           C 98.09,170.20 93.47,174.89 94.34,177.86
             94.87,179.70 96.54,180.24 98.00,181.00
             98.00,181.00 105.00,174.00 105.00,174.00
             104.11,172.28 103.33,170.20 100.94,170.20 Z
           M 134.00,178.00
           C 141.26,182.74 139.98,180.87 149.00,176.00
             149.00,176.00 144.00,170.00 144.00,170.00
             144.00,170.00 134.00,178.00 134.00,178.00 Z
           M 34.42,176.80
           C 34.42,176.80 55.39,192.92 55.39,192.92
             55.39,192.92 86.71,216.77 86.71,216.77
             89.12,218.53 98.79,225.26 99.71,227.38
             101.33,231.12 95.41,237.37 92.95,239.82
             82.81,249.87 68.97,254.22 55.00,254.00
             49.14,253.90 49.26,253.17 44.01,251.69
             17.41,244.15 3.34,214.63 12.85,189.00
             15.23,182.58 18.46,175.11 24.24,171.05
             28.46,170.52 31.31,174.27 34.42,176.80 Z
           M 103.00,186.00
           C 109.77,190.06 111.12,186.15 117.00,182.00
             110.97,175.39 107.18,180.19 103.00,186.00 Z
           M 116.08,192.31
           C 115.37,194.31 116.58,196.28 118.77,196.22
             120.52,196.16 126.19,192.11 128.00,191.00
             128.00,191.00 128.00,189.00 128.00,189.00
             128.00,189.00 123.00,186.00 123.00,186.00
             121.13,187.36 116.82,190.21 116.08,192.31 Z" />
</svg>
